X: 831
T: Albert House
R: hornpipe
M: 4/4
K: Amajor
AB|:c2 ec Bc (3dcB|Ae cA BA FA|
E2 AB (3cBA ec|1 BA FA B2 AB:|2 BA FA B2 Ac||
|:e2 ef ec BA|(3aaa ga fd af|1 e2 ef ec Ac|
ec Ac B2 Ac:|2 e2 ge fg af|ec Bc A2 z2||

